img/header/close-btn.svg

<svg width="352" height="352" fill="none" xmlns="http://www.w3.org/2000/svg"><path d="M242.72 176L342.79 75.93c12.28-12.28 12.28-32.19 0-44.48L320.55 9.21c-12.28-12.28-32.19-12.28-44.48 0L176 109.28 75.93 9.21c-12.28-12.28-32.19-12.28-44.48 0L9.21 31.45c-12.28 12.28-12.28 32.19 0 44.48L109.28 176 9.21 276.07c-12.28 12.28-12.28 32.19 0 44.48l22.24 22.24c12.28 12.28 32.2 12.28 44.48 0L176 242.72l100.07 100.07c12.28 12.28 32.2 12.28 44.48 0l22.24-22.24c12.28-12.28 12.28-32.19 0-44.48L242.72 176z" fill="#fff"/></svg>

<svg width="352" height="352" viewBox="0 0 352 352" fill="none" xmlns="http://www.w3.org/2000/svg">
<path d="M242.72 176L342.79 75.93C355.07 63.65 355.07 43.74 342.79 31.45L320.55 9.21C308.27 -3.07 288.36 -3.07 276.07 9.21L176 109.28L75.93 9.21C63.65 -3.07 43.74 -3.07 31.45 9.21L9.21 31.45C-3.07 43.73 -3.07 63.64 9.21 75.93L109.28 176L9.21 276.07C-3.07 288.35 -3.07 308.26 9.21 320.55L31.45 342.79C43.73 355.07 63.65 355.07 75.93 342.79L176 242.72L276.07 342.79C288.35 355.07 308.27 355.07 320.55 342.79L342.79 320.55C355.07 308.27 355.07 288.36 342.79 276.07L242.72 176Z" fill="white"/>
</svg>
